svg/nature_outline.svg

<svg xmlns="http://www.w3.org/2000/svg" viewBox="0 0 24 24"><path d="m12.08 14.22.69-.09a4.998 4.998 0 0 0-.6-9.96c-1.33 0-2.6.53-3.54 1.46-.93.94-1.46 2.21-1.46 3.54 0 2.47 1.79 4.52 4.16 4.92zm.92 1.9V20h6v2H5v-2h6v-3.94c-3.31-.56-5.83-3.42-5.83-6.89A7.001 7.001 0 1 1 13 16.12"/></svg>

<svg xmlns="http://www.w3.org/2000/svg" id="mdi-nature-outline" viewBox="0 0 24 24"><path d="M12.08 14.22L12.77 14.13C15.24 13.84 17.17 11.73 17.17 9.17C17.17 6.41 14.94 4.17 12.17 4.17C10.84 4.17 9.57 4.7 8.63 5.63C7.7 6.57 7.17 7.84 7.17 9.17C7.17 11.64 8.96 13.69 11.33 14.09L12.08 14.22M13 16.12V20H19V22H5V20H11V16.06C7.69 15.5 5.17 12.64 5.17 9.17C5.17 7.31 5.91 5.53 7.22 4.22C8.53 2.91 10.31 2.17 12.17 2.17C16.04 2.17 19.17 5.3 19.17 9.17C19.17 12.76 16.47 15.71 13 16.12Z" /></svg>
